!!!COM: Josephine Lang
!!!CNT: Deutsch
!!!TXO: Deutsch
!!!OTL: "Lied (Mag da draussen Schnee sich thu2rmen"
!!!LYR: Heine
!!!OPS: Op. 15
!!!ONM: No. 2
!!!ENC: Alyona Dzerbina
!!!YOR: Josephine Lang: Selected Songs
!!!YOR: Da Capo Press, 1982
!!!ODT: 1834/
!!NB: Vocal melody only encoded.
**kern	**text
*staff1	*staff1
*clefG2	*
*k[b-e-a-d-g-]	*
*M3/4	*
*MM[Agitato]	*
2.r	.
=2	=2
2.r	.
=3	=3
2.r	.
=4	=4
2.r	.
=5	=5
2.r	.
=6	=6
4r	.
4r	.
{8.d-	{Mag-
16e-	-da
=7	=7
4.f	drau-
8f	-ssen
8.gn	Schnee
16an	sich
=8	=8
4cc	thu2r-
4b-}	-men,}
{8.an	{mag
16b-	es
=9	=9
4.ee-	ha-
8b-	-geln,
8an	mag
8b-	es
=10	=10
8dd-	stu2r-
8cc	|
2cc}	-men.}
=11	=11
{8.b-	{klir-
16b-	-rend
8cc	an
8ddn	mein
8ee-	Fen-
8ff	-ster
=12	=12
8.gg-	schla-
16g-	|
2g-}	-gen,}
=13	=13
{8.f	{nim-
16g-	-mer
8f	will
8an	ich
8b-	mich
8dd-	be
=14	=14
(2cc	kla-
8f)}	-gen!}
8r	.
=15	=15
{8g-	{denn,
16r	.
16f	ich
8e-	tra-
8g-	-ge
8.cc	in
16b-	der
=16	=16
2a-}	Brust}
4r	.
=17	=17
{8.b-	{Lieb-
16an	-chens
8b-	Bild
8cc	und
8dd-	Fru2h-
8ee-	-lings
=18	=18
2.ff}	Lust,}
=19	=19
{2ff	{Lieb-
4b-	-chens
=20	=20
2dd-	Bild
8cc	und
8b-	|
=21	=21
(2d-	Fru2h-
8.f	|
16e-	-lings
=22	=22
2d-)}	Lust!}
4r	.
=23	=23
2.r	.
=24	=24
2.r	.
=25	=25
2.r	.
=26	=26
2.r	.
==	==
*-	*-
